assets/icons/messages.svg

<svg xml:space="preserve" fill="#ebebeb" style="fill-rule:evenodd;clip-rule:evenodd;stroke-linejoin:round;stroke-miterlimit:2" viewBox="0 0 800 800" xmlns="http://www.w3.org/2000/svg"><path d="M263.356 286.243a7.5 7.5 0 0 0-7.5 7.5v75.572H66.644v-189.22h57.74a7.5 7.5 0 0 0 7.5-7.5 7.5 7.5 0 0 0-7.5-7.5h-57.74v-31.768c0-13.188 10.729-23.917 23.918-23.917h10.799a7.5 7.5 0 0 0 7.5-7.5 7.5 7.5 0 0 0-7.5-7.5H90.562c-21.459 0-38.918 17.458-38.918 38.917v282.755c0 21.459 17.459 38.917 38.918 38.917h141.377c21.459 0 38.918-17.458 38.918-38.917V293.743a7.5 7.5 0 0 0-7.501-7.5ZM231.938 440H90.562c-13.188 0-23.918-10.729-23.918-23.917v-31.768h189.213v31.768c-.001 13.188-10.73 23.917-23.919 23.917Zm-36.372-334.676c-10.906-1.784-11.366-2.85-11.366-5.089 0-3.959 6.645-5.005 10.158-5.005 5.645 0 9.286 1.902 9.967 3.781a7.5 7.5 0 0 0 9.606 4.496 7.5 7.5 0 0 0 4.497-9.606c-3.056-8.433-12.279-13.671-24.07-13.671-14.813 0-25.158 8.226-25.158 20.005 0 15.976 14.989 18.428 23.944 19.893 10.913 1.785 11.373 2.853 11.373 5.098 0 3.959-6.646 5.005-10.159 5.005-5.645 0-9.287-1.903-9.967-3.783a7.5 7.5 0 0 0-14.105 5.103c3.053 8.438 12.276 13.68 24.072 13.68 14.813 0 25.159-8.226 25.159-20.005.001-15.984-14.993-18.437-23.951-19.902Zm137.996 0c-10.906-1.784-11.366-2.85-11.366-5.089 0-3.959 6.645-5.005 10.158-5.005 5.644 0 9.286 1.903 9.968 3.782a7.496 7.496 0 0 0 9.606 4.495 7.5 7.5 0 0 0 4.495-9.607c-3.057-8.432-12.279-13.67-24.069-13.67-14.813 0-25.158 8.226-25.158 20.005 0 15.976 14.989 18.428 23.944 19.893 10.913 1.785 11.373 2.853 11.373 5.098 0 3.959-6.646 5.005-10.159 5.005-5.646 0-9.288-1.904-9.969-3.784a7.497 7.497 0 0 0-9.604-4.5 7.5 7.5 0 0 0-4.499 9.605c3.054 8.438 12.277 13.679 24.072 13.679 14.813 0 25.159-8.226 25.159-20.005 0-15.984-14.993-18.437-23.951-19.902ZM287.29 80.693a7.5 7.5 0 0 0-8.299 2.167l-15.635 18.317-15.635-18.317a7.498 7.498 0 0 0-13.204 4.87v50a7.5 7.5 0 0 0 7.5 7.5 7.5 7.5 0 0 0 7.5-7.5v-29.661l8.135 9.53a7.5 7.5 0 0 0 11.408 0l8.135-9.53v29.661a7.5 7.5 0 0 0 7.5 7.5 7.5 7.5 0 0 0 7.5-7.5v-50a7.5 7.5 0 0 0-4.905-7.037Z" style="fill:#fff;fill-rule:nonzero;stroke:#fff;stroke-width:.57px" transform="scale(1.75824)"/><path d="M361.711 32.448C335.363 11.523 300.434 0 263.355 0s-72.01 11.524-98.356 32.448c-26.854 21.328-41.643 49.839-41.643 80.282 0 53.437 45.967 99.009 110.149 110.165 1.168 16.66-4.858 33.198-16.639 45.091a7.5 7.5 0 0 0 5.328 12.778c34.298 0 63.751-24.484 70.694-57.815 64.351-11.061 110.467-56.692 110.467-110.219.001-30.442-14.789-58.954-41.644-80.282Zm-76.533 176.518a7.5 7.5 0 0 0-6.457 7.944l.008.104c-3.452 22.079-19.215 39.739-39.588 46.15a73.68 73.68 0 0 0 8.82-46.213l.003-.043a7.5 7.5 0 0 0-6.456-7.944c-59.77-8.261-103.151-48.733-103.151-96.233 0-53.889 56.074-97.73 124.999-97.73 68.926 0 125.001 43.841 125.001 97.73-.001 47.508-43.393 87.982-103.179 96.235Z" style="fill:#fff;fill-rule:nonzero;stroke:#fff;stroke-width:.57px" transform="scale(1.75824)"/></svg>

<?xml version="1.0" encoding="UTF-8" standalone="no"?>
<!DOCTYPE svg PUBLIC "-//W3C//DTD SVG 1.1//EN" "http://www.w3.org/Graphics/SVG/1.1/DTD/svg11.dtd">
<svg width="100%" height="100%" viewBox="0 0 800 800" version="1.1" xmlns="http://www.w3.org/2000/svg" xmlns:xlink="http://www.w3.org/1999/xlink" xml:space="preserve" xmlns:serif="http://www.serif.com/" style="fill-rule:evenodd;clip-rule:evenodd;stroke-linejoin:round;stroke-miterlimit:2;">
    <g transform="matrix(1.75824,0,0,1.75824,0,0)">
        <path d="M263.356,286.243C259.213,286.243 255.856,289.601 255.856,293.743L255.856,369.315L66.644,369.315L66.644,180.095L124.384,180.095C128.527,180.095 131.884,176.737 131.884,172.595C131.884,168.453 128.527,165.095 124.384,165.095L66.644,165.095L66.644,133.327C66.644,120.139 77.373,109.41 90.562,109.41L101.361,109.41C105.504,109.41 108.861,106.052 108.861,101.91C108.861,97.768 105.504,94.41 101.361,94.41L90.562,94.41C69.103,94.41 51.644,111.868 51.644,133.327L51.644,416.082C51.644,437.541 69.103,454.999 90.562,454.999L231.939,454.999C253.398,454.999 270.857,437.541 270.857,416.082L270.857,293.743C270.856,289.601 267.499,286.243 263.356,286.243ZM231.938,440L90.562,440C77.374,440 66.644,429.271 66.644,416.083L66.644,384.315L255.857,384.315L255.857,416.083C255.856,429.271 245.127,440 231.938,440Z" style="fill:white;fill-rule:nonzero;stroke:white;stroke-width:0.57px;"/>
        <path d="M195.566,105.324C184.66,103.54 184.2,102.474 184.2,100.235C184.2,96.276 190.845,95.23 194.358,95.23C200.003,95.23 203.644,97.132 204.325,99.011C205.736,102.905 210.037,104.92 213.931,103.507C217.826,102.096 219.839,97.795 218.428,93.901C215.372,85.468 206.149,80.23 194.358,80.23C179.545,80.23 169.2,88.456 169.2,100.235C169.2,116.211 184.189,118.663 193.144,120.128C204.057,121.913 204.517,122.981 204.517,125.226C204.517,129.185 197.871,130.231 194.358,130.231C188.713,130.231 185.071,128.328 184.391,126.448C182.982,122.552 178.679,120.54 174.787,121.947C170.892,123.356 168.877,127.656 170.286,131.551C173.339,139.989 182.562,145.231 194.358,145.231C209.171,145.231 219.517,137.005 219.517,125.226C219.518,109.242 204.524,106.789 195.566,105.324Z" style="fill:white;fill-rule:nonzero;stroke:white;stroke-width:0.57px;"/>
        <path d="M333.562,105.324C322.656,103.54 322.196,102.474 322.196,100.235C322.196,96.276 328.841,95.23 332.354,95.23C337.998,95.23 341.64,97.133 342.322,99.012C343.733,102.906 348.033,104.922 351.928,103.507C355.823,102.095 357.835,97.794 356.423,93.9C353.366,85.468 344.144,80.23 332.354,80.23C317.541,80.23 307.196,88.456 307.196,100.235C307.196,116.211 322.185,118.663 331.14,120.128C342.053,121.913 342.513,122.981 342.513,125.226C342.513,129.185 335.867,130.231 332.354,130.231C326.708,130.231 323.066,128.327 322.385,126.447C320.976,122.553 316.678,120.535 312.781,121.947C308.886,123.357 306.872,127.657 308.282,131.552C311.336,139.99 320.559,145.231 332.354,145.231C347.167,145.231 357.513,137.005 357.513,125.226C357.513,109.242 342.52,106.789 333.562,105.324Z" style="fill:white;fill-rule:nonzero;stroke:white;stroke-width:0.57px;"/>
        <path d="M287.29,80.693C284.341,79.606 281.03,80.472 278.991,82.86L263.356,101.177L247.721,82.86C245.682,80.471 242.368,79.605 239.422,80.693C236.475,81.779 234.517,84.588 234.517,87.73L234.517,137.73C234.517,141.872 237.874,145.23 242.017,145.23C246.16,145.23 249.517,141.872 249.517,137.73L249.517,108.069L257.652,117.599C259.077,119.268 261.161,120.23 263.356,120.23C265.551,120.23 267.635,119.269 269.06,117.599L277.195,108.069L277.195,137.73C277.195,141.872 280.552,145.23 284.695,145.23C288.838,145.23 292.195,141.872 292.195,137.73L292.195,87.73C292.195,84.588 290.237,81.78 287.29,80.693Z" style="fill:white;fill-rule:nonzero;stroke:white;stroke-width:0.57px;"/>
        <path d="M361.711,32.448C335.363,11.523 300.434,0 263.355,0C226.276,0 191.345,11.524 164.999,32.448C138.145,53.776 123.356,82.287 123.356,112.73C123.356,166.167 169.323,211.739 233.505,222.895C234.673,239.555 228.647,256.093 216.866,267.986C214.735,270.137 214.107,273.357 215.272,276.151C216.437,278.944 219.167,280.764 222.194,280.764C256.492,280.764 285.945,256.28 292.888,222.949C357.239,211.888 403.355,166.257 403.355,112.73C403.356,82.288 388.566,53.776 361.711,32.448ZM285.178,208.966C281.272,209.506 278.45,212.976 278.721,216.91C278.723,216.945 278.726,216.979 278.729,217.014C275.277,239.093 259.514,256.753 239.141,263.164C246.965,249.305 250.18,233.04 247.961,216.951C247.962,216.936 247.963,216.922 247.964,216.908C248.235,212.975 245.413,209.504 241.508,208.964C181.738,200.703 138.357,160.231 138.357,112.731C138.357,58.842 194.431,15.001 263.356,15.001C332.282,15.001 388.357,58.842 388.357,112.731C388.356,160.239 344.964,200.713 285.178,208.966Z" style="fill:white;fill-rule:nonzero;stroke:white;stroke-width:0.57px;"/>
    </g>
</svg>
